img/in-icon.svg

<svg width="43" height="43" viewBox="0 0 43 43" fill="none" xmlns="http://www.w3.org/2000/svg">
<g clip-path="url(#clip0_203_762)">
<path d="M21.4914 0.997925C10.1342 0.997925 0.927704 10.2045 0.927704 21.5616C0.927704 32.9188 10.1342 42.1253 21.4914 42.1253C32.8485 42.1253 42.0551 32.9188 42.0551 21.5616C42.0551 10.2045 32.8485 0.997925 21.4914 0.997925ZM16.4576 30.0848H12.2934V16.6842H16.4576V30.0848ZM14.3498 15.0391C13.0346 15.0391 12.1842 14.1073 12.1842 12.9548C12.1842 11.7789 13.0603 10.8749 14.4033 10.8749C15.7464 10.8749 16.569 11.7789 16.5947 12.9548C16.5947 14.1073 15.7464 15.0391 14.3498 15.0391ZM31.6661 30.0848H27.502V22.6583C27.502 20.9297 26.8979 19.7559 25.3921 19.7559C24.2418 19.7559 23.5585 20.5506 23.2564 21.3153C23.145 21.5873 23.1172 21.9729 23.1172 22.3563V30.0827H18.9509V20.9575C18.9509 19.2846 18.8974 17.8858 18.8417 16.682H22.4596L22.6502 18.5435H22.7338C23.2821 17.6695 24.6252 16.38 26.8722 16.38C29.6119 16.38 31.6661 18.2157 31.6661 22.1614V30.0848Z" fill="#928A97"/>
</g>
<defs>
<clipPath id="clip0_203_762">
<rect width="42.841" height="42.841" fill="white" transform="translate(0.0708923 0.140747)"/>
</clipPath>
</defs>
</svg>

<svg width="43" height="43" fill="none" xmlns="http://www.w3.org/2000/svg"><g clip-path="url(#a)"><path d="M21.491.998C10.134.998.928 10.204.928 21.562c0 11.357 9.206 20.563 20.563 20.563 11.358 0 20.564-9.206 20.564-20.563C42.055 10.204 32.85.998 21.491.998Zm-5.033 29.087h-4.165v-13.4h4.165v13.4ZM14.35 15.039c-1.315 0-2.166-.932-2.166-2.084 0-1.176.876-2.08 2.22-2.08 1.342 0 2.165.904 2.19 2.08 0 1.152-.848 2.084-2.244 2.084Zm17.316 15.046h-4.164v-7.427c0-1.728-.604-2.902-2.11-2.902-1.15 0-1.834.795-2.136 1.56-.111.271-.139.657-.139 1.04v7.727h-4.166v-9.125c0-1.673-.054-3.072-.11-4.276h3.619l.19 1.862h.084c.548-.875 1.891-2.164 4.138-2.164 2.74 0 4.794 1.836 4.794 5.781v7.924Z" fill="#928A97"/></g><defs><clipPath id="a"><path fill="#fff" transform="translate(.07 .14)" d="M0 0h42.841v42.841H0z"/></clipPath></defs></svg>
